packages/web/public/svg/follow-up-bg.svg

<svg fill="none" height="726" viewBox="0 0 1092 726" width="1092" xmlns="http://www.w3.org/2000/svg" xmlns:xlink="http://www.w3.org/1999/xlink"><linearGradient id="a" gradientUnits="userSpaceOnUse" x1="-828.578" x2="-828.578" y1="492.817" y2="935.817"><stop offset="0" stop-color="#ff9d52"/><stop offset="1" stop-color="#ff6f00"/></linearGradient><mask id="b" height="587" maskUnits="userSpaceOnUse" width="991" x="20" y="107"><path clip-rule="evenodd" d="m52.5354 128.547c-18.0416.408-32.4091 15.233-32.2519 33.279l3.8709 444.25c.1509 17.319 13.6649 31.574 30.951 32.649l885.4816 55.053c18.138 1.128 33.774-12.621 34.976-30.754l34.477-520.217c1.28-19.338-14.302-35.612-33.677-35.173zm900.8866 51.27c11.598 0 21-9.402 21-21s-9.402-21-21-21-21 9.402-21 21 9.402 21 21 21z" fill="#fff" fill-rule="evenodd"/></mask><mask id="c" height="270" maskUnits="userSpaceOnUse" width="193" x="898" y="2"><path clip-rule="evenodd" d="m937.476 144.922c2.941-2.543 5.037-5.011 8.645-5.011 3.609 0 37.008 15.847 37.008 15.847l36.821-17.307-24.816-26.134-57.658-3.79-10.629.329-18.051-18.4978 19.154-25.1804 69.322-41.9524s59.738-43.2828 82.078-5.9039c22.35 37.379 4.04 254.1235 4.04 254.1235l-63.44-36.741-121.316-4.814 32.571-71.072 2.541-12.593s.789 1.24 3.73-1.303z" fill="#fff" fill-rule="evenodd"/></mask><path clip-rule="evenodd" d="m.320168 196.028c-.170986-19.624 16.718532-35.059 36.247632-33.127l746.7682 73.878c13.267 1.313 24.441 10.479 28.322 23.234l127.889 420.311c6.702 22.026-10.64 43.971-33.618 42.543l-870.8236-54.142c-17.286-1.075-30.80007-15.33-30.95097-32.649z" fill="#e06506" fill-rule="evenodd"/><path clip-rule="evenodd" d="m52.5354 128.547c-18.0416.408-32.4091 15.233-32.2519 33.279l3.8709 444.25c.1509 17.319 13.6649 31.574 30.951 32.649l885.4816 55.053c18.138 1.128 33.774-12.621 34.976-30.754l34.477-520.217c1.28-19.338-14.302-35.612-33.677-35.173zm900.8866 51.27c11.598 0 21-9.402 21-21s-9.402-21-21-21-21 9.402-21 21 9.402 21 21 21z" fill="#9b59b6" fill-rule="evenodd"/><g mask="url(#b)"><path clip-rule="evenodd" d="m-828.578 935.817s750.1731-513.441 1057.159-431.799c306.985 81.643 302.785 393.699 302.785 393.699z" fill="url(#a)" fill-rule="evenodd"/></g><g mask="url(#c)"><path d="m938.995 143.283s2.585 38.901 43.792 30.518c28.733-5.844 10.539 44.25 19.903 49.042 31 15.86 35.28 41.553 62.28 7.047 27-34.507 28.61-94.168-28.26-94.168-26.17 0-62.288-77.6642-97.715-28.097" stroke="#ddd" stroke-dasharray="15" stroke-width="5"/></g></svg>

<svg width="1092" height="726" viewBox="0 0 1092 726" fill="none" xmlns="http://www.w3.org/2000/svg">
<path fill-rule="evenodd" clip-rule="evenodd" d="M0.320168 196.028C0.149182 176.404 17.0387 160.969 36.5678 162.901L783.336 236.779C796.603 238.092 807.777 247.258 811.658 260.013L939.547 680.324C946.249 702.35 928.907 724.295 905.929 722.867L35.1054 668.725C17.8194 667.65 4.30533 653.395 4.15443 636.076L0.320168 196.028Z" fill="#E06506"/>
<path fill-rule="evenodd" clip-rule="evenodd" d="M52.5354 128.547C34.4938 128.955 20.1263 143.78 20.2835 161.826L24.1544 606.076C24.3053 623.395 37.8193 637.65 55.1054 638.725L940.587 693.778C958.725 694.906 974.361 681.157 975.563 663.024L1010.04 142.807C1011.32 123.469 995.738 107.195 976.363 107.634L52.5354 128.547ZM953.422 179.817C965.02 179.817 974.422 170.415 974.422 158.817C974.422 147.219 965.02 137.817 953.422 137.817C941.824 137.817 932.422 147.219 932.422 158.817C932.422 170.415 941.824 179.817 953.422 179.817Z" fill="#9B59B6"/>
<mask id="mask0_22_162" style="mask-type:alpha" maskUnits="userSpaceOnUse" x="20" y="107" width="991" height="587">
<path fill-rule="evenodd" clip-rule="evenodd" d="M52.5354 128.547C34.4938 128.955 20.1263 143.78 20.2835 161.826L24.1544 606.076C24.3053 623.395 37.8193 637.65 55.1054 638.725L940.587 693.778C958.725 694.906 974.361 681.157 975.563 663.024L1010.04 142.807C1011.32 123.469 995.738 107.195 976.363 107.634L52.5354 128.547ZM953.422 179.817C965.02 179.817 974.422 170.415 974.422 158.817C974.422 147.219 965.02 137.817 953.422 137.817C941.824 137.817 932.422 147.219 932.422 158.817C932.422 170.415 941.824 179.817 953.422 179.817Z" fill="white"/>
</mask>
<g mask="url(#mask0_22_162)">
<path fill-rule="evenodd" clip-rule="evenodd" d="M-828.578 935.817C-828.578 935.817 -78.4049 422.376 228.581 504.018C535.566 585.661 531.366 897.717 531.366 897.717L-828.578 935.817Z" fill="url(#paint0_linear_22_162)"/>
</g>
<mask id="mask1_22_162" style="mask-type:alpha" maskUnits="userSpaceOnUse" x="898" y="2" width="193" height="270">
<path fill-rule="evenodd" clip-rule="evenodd" d="M937.476 144.922C940.417 142.379 942.513 139.911 946.121 139.911C949.73 139.911 983.129 155.758 983.129 155.758L1019.95 138.451L995.134 112.317L937.476 108.527L926.847 108.856L908.796 90.3582L927.95 65.1778L997.272 23.2254C997.272 23.2254 1057.01 -20.0574 1079.35 17.3215C1101.7 54.7005 1083.39 271.445 1083.39 271.445L1019.95 234.704L898.634 229.89L931.205 158.818L933.746 146.225C933.746 146.225 934.535 147.465 937.476 144.922Z" fill="white"/>
</mask>
<g mask="url(#mask1_22_162)">
<path d="M938.995 143.283C938.995 143.283 941.58 182.184 982.787 173.801C1011.52 167.957 993.326 218.051 1002.69 222.843C1033.69 238.703 1037.97 264.396 1064.97 229.89C1091.97 195.383 1093.58 135.722 1036.71 135.722C1010.54 135.722 974.422 58.0578 938.995 107.625" stroke="#DDDDDD" stroke-width="5" stroke-dasharray="15"/>
</g>
<defs>
<linearGradient id="paint0_linear_22_162" x1="-828.578" y1="492.817" x2="-828.578" y2="935.817" gradientUnits="userSpaceOnUse">
<stop stop-color="#FF9D52"/>
<stop offset="1" stop-color="#FF6F00"/>
</linearGradient>
</defs>
</svg>
